svg/black/bq.svg

<svg xmlns="http://www.w3.org/2000/svg" width="32" height="32" viewBox="0 0 32 32">
  <path fill="#1D1D1D" fill-rule="evenodd" d="M16,32 C7.163444,32 0,24.836556 0,16 C0,7.163444 7.163444,0 16,0 C24.836556,0 32,7.163444 32,16 C32,24.836556 24.836556,32 16,32 Z M9.96610004,21.094356 C12.3532328,23.1967166 15.6276514,22.9215898 17.5992439,21.1418101 C19.6202011,19.3173855 20.0723017,16.3861332 18.6769125,14.0910133 C17.7535383,12.5722814 16.3979105,11.6834617 14.6325718,11.4136522 C12.8518677,11.1415352 11.322705,11.7074061 9.95036396,12.8538959 C9.95036396,11.8615734 9.94733131,10.9147989 9.95154332,9.96805775 C9.95390205,9.44007652 9.77285291,8.98406232 9.41031657,8.60549964 C9.03096587,8.20941338 8.55864764,8.01003258 8,8 L8,22.3665875 L9.96610004,22.3665875 L9.96610004,21.094356 Z M9.96161846,16.9541444 C9.96175324,14.8448279 11.6875327,13.1358114 13.8201252,13.1331361 C15.9708798,13.1303938 17.6790699,14.8434903 17.6779243,17.0020333 C17.6768123,19.086168 15.9531894,20.7888974 13.8309753,20.8022742 C11.6997307,20.8157179 9.96148367,19.0869371 9.96161846,16.9541444 Z M16.3248034,22.3405162 C18.4707396,23.0006934 20.3488591,22.5745094 22.0472436,21.1523577 C22.0472436,22.1395636 22.0468393,23.0808202 22.0474121,24.0220434 C22.0477828,24.5529676 22.226271,25.0172754 22.5988825,25.3984465 C22.9779973,25.7862726 23.4443513,25.9846502 24,26 L24,11.6311719 L22.0290814,11.6311719 L22.0290814,12.9066138 C21.2491515,12.258877 20.4157795,11.7846704 19.4494091,11.5656926 C18.4767038,11.3452768 17.517578,11.4087162 16.5340899,11.6791945 C16.6064691,11.7231707 16.6484208,11.7499242 16.6915855,11.7747047 C17.2094609,12.0721372 17.6942803,12.4170239 18.0943204,12.8587584 C18.3100092,13.0968984 18.5414003,13.2175234 18.8647818,13.2791235 C21.0349454,13.6925326 22.3473074,15.5996592 21.9754372,17.758871 C21.6924237,19.4024083 20.1878591,20.7471084 18.5176108,20.8431871 C18.3596772,20.8522498 18.2423474,20.909469 18.1371482,21.0224693 C17.6636506,21.5310207 17.1096867,21.9339291 16.4866795,22.2444709 C16.4435148,22.2659741 16.4034501,22.2935971 16.3248034,22.3405162 Z"/>
</svg>

<svg xmlns="http://www.w3.org/2000/svg" width="32" height="32"><path fill="#1D1D1D" fill-rule="evenodd" d="M16 32C7.163 32 0 24.837 0 16S7.163 0 16 0s16 7.163 16 16-7.163 16-16 16zM9.966 21.094c2.387 2.103 5.662 1.828 7.633.048 2.021-1.825 2.473-4.756 1.078-7.051-.923-1.519-2.28-2.408-4.044-2.677-1.781-.272-3.31.293-4.683 1.44 0-.992-.003-1.94.002-2.886a1.891 1.891 0 0 0-.542-1.363A1.925 1.925 0 0 0 8 8v14.367h1.966v-1.273zm-.004-4.14c0-2.11 1.726-3.818 3.858-3.82a3.834 3.834 0 0 1 3.858 3.868c-.001 2.084-1.725 3.787-3.847 3.8a3.849 3.849 0 0 1-3.87-3.848zm6.363 5.387c2.146.66 4.024.234 5.722-1.189v2.87c0 .531.18.995.552 1.376.379.388.845.587 1.401.602V11.631h-1.97v1.276c-.78-.648-1.614-1.122-2.58-1.341-.973-.22-1.932-.157-2.916.113l.158.096c.517.297 1.002.642 1.402 1.084.216.238.447.359.77.42 2.17.414 3.483 2.32 3.111 4.48-.283 1.643-1.787 2.988-3.457 3.084a.528.528 0 0 0-.38.18 5.713 5.713 0 0 1-1.651 1.221c-.043.022-.084.05-.162.097z"/></svg>
